X: 8626
T: Crooked Road To Dublin, The
R: reel
M: 4/4
K: Gminor
F|DG G/G/G FGAF|G2FG AdTcA|GBAG FGAg|fdce d2 BA|
G/G/G +>+G2 FGAF|G2FG AdcA|GBAG FGAg|fdce d2 BA||
dg g/g/g fgaf|dg g/g/g agfd|dg g/g/g fgag|fdce d2cA|
dg g/g/g fgaf|dg g/g/g {g}a2 (uga)|bgaf gbag|fdcA d2cA||

